X: 1
T:Braes of Mar
M:4/4
L:1/8
R:Strathspey
K:D
|:"D"F<AA>B d>ef>e|"G"dA "Em"B<dB>A|"D"F<AA>B d>ef>d|"G"e<gf<a "A"e2
"D"d2:|
|:"D"f<aa>g f>da>f|"G"ga "Em"g>eb>g|"D"f<aa>g f>da>f|"G"g<bf<a "A"e2
"D"d2:|
|:"Em"e<ee>f g>fe>d|"G"BA "Em"B<dB>A|"D"F<AA>B d>ef>d|"G"e<gf<a "A"e
2"D"d2:|
|:"D"F<AA>F D>FA>F|"G"GG D>GB>G|"D"F<AA>F D>FA>F|"G"G<BF<A "A"E2"D"D
2|
|"D"F<AA>F D>FA>F|"Em"E<EE>F "A"G>FE>D|"D"F<AA>B d>ef>g|"D"a>ba>f "A"e2"
D"d2||
